X: 1
T: Father Jack Walsh
M: 6/8
L: 1/8
D: Spirit, Dervish
K: D dor
~f3 ded|cAB ~c2 A|dcA ~G3|Add efg|
~f3 ded|cAB ~c2 A|dcA ~G3|1 Ad^c dag:|2 Ad^c dBA||
dfa dfa|dfa agf|~g3 ged|^cde ~g3|
afd fed|cAB ~c2 A|dcA ~G3|1 Ad^c dBA:|Ad^c dag||
You can also play bar 4 in the A part as: |Add ^cde|  and bars 3 and 4 in the B part as: |gef ~g2 a|gef gfe|
